hosted_logos/kubeservice-stack.svg

<svg xmlns="http://www.w3.org/2000/svg" role="img" viewBox="5.00 5.00 1040.00 1040.00"><title>KubeService Stack logo</title><g fill="none" stroke-width="2"><path stroke="#93bed1" d="M526.04 166.5l-.02.5a1.28 1.26 69 0 1-.37.85l-13.44 13.4" vector-effect="non-scaling-stroke"/><path stroke="#98d6f0" d="M512.21 181.25L167.58 525.92q-.08.08-.21.1l-.12.02" vector-effect="non-scaling-stroke"/><path stroke="#949ec8" d="M167.25 526.04l-70.68-70.62a.43.42 44.5 0 0-.61 0L26.2 525.17a.86.86 0 0 0 0 1.21l429.3 429.41" vector-effect="non-scaling-stroke"/><path stroke="#98d6f0" d="M455.5 955.79q35.02 35.8 70.75 70.88.38.37.75 0l415.04-415.42" vector-effect="non-scaling-stroke"/><path stroke="#93bed1" d="M942.04 611.25l14.71-14.71" vector-effect="non-scaling-stroke"/><path stroke="#949ec8" d="M956.75 596.54l70.21-69.94a.35.35 0 0 0 0-.5L597.44 96.57" vector-effect="non-scaling-stroke"/><path stroke="#98d6f0" d="M597.44 96.57l-71.2-71a.35.35 0 0 0-.49 0l-69.89 69.8q-.44.43 0 .86l70.18 70.27" vector-effect="non-scaling-stroke"/><path stroke="#2c74b9" d="M597.44 96.57q-35.61 34.56-70.19 69.97" vector-effect="non-scaling-stroke"/><path stroke="#2c95c2" d="M527.25 166.54l-1.21-.04" vector-effect="non-scaling-stroke"/><path stroke="#285d9a" d="M956.75 596.54c-.92-.07-.99-.62-1.46-1.09q-34.02-34.17-68.24-68.15c-.28-.28-1.13-.63-1.51-.8" vector-effect="non-scaling-stroke"/><path stroke="#949ec8" d="M885.54 526.5l-73.04-73.29" vector-effect="non-scaling-stroke"/><path stroke="#285d9a" d="M812.5 453.21q-.55-1.46-1.65-2.56-141.71-141.64-283.38-283.3c-.26-.26-.26-.47-.22-.81" vector-effect="non-scaling-stroke"/><path stroke="#93bed1" d="M812.5 453.21l-14.38 14.24" vector-effect="non-scaling-stroke"/><path stroke="#2c95c2" d="M798.12 467.45l-285.91-286.2m429.83 430q-35.65-34.84-70.32-70.85" vector-effect="non-scaling-stroke"/><path stroke="#93bed1" d="M885.54 526.5l-13.82 13.9" vector-effect="non-scaling-stroke"/><path stroke="#98d6f0" d="M871.72 540.4Q700.26 711.87 528.33 883.84q-.89.89-2.04 1.41" vector-effect="non-scaling-stroke"/><path stroke="#949ec8" d="M526.29 885.25l-72.83-73" vector-effect="non-scaling-stroke"/><path stroke="#98d6f0" d="M798.12 467.45l-56.29 56" vector-effect="non-scaling-stroke"/><path stroke="#3073a2" d="M741.83 523.45l-140.79-140.7" vector-effect="non-scaling-stroke"/><path stroke="#98d6f0" d="M601.04 382.75l-74.14-74.47a.49.49 0 0 0-.7 0L379.21 455.5" vector-effect="non-scaling-stroke"/><path stroke="#3073a2" d="M379.21 455.5l-70.39 70.37q-.38.38 0 .77L327 544.79" vector-effect="non-scaling-stroke"/><path stroke="#2c74b9" d="M327 544.79L453.71 671.5" vector-effect="non-scaling-stroke"/><path stroke="#98d6f0" d="M453.71 671.5l69.69 69.75a.52.52 0 0 1 0 .73l-69.94 70.27" vector-effect="non-scaling-stroke"/><path stroke="#2c74b9" d="M453.46 812.25q-.42.05-.62-.3" vector-effect="non-scaling-stroke"/><path stroke="#3073a2" d="M452.84 811.95L167.57 526.64" vector-effect="non-scaling-stroke"/><path stroke="#2c74b9" d="M167.57 526.64l-.32-.6" vector-effect="non-scaling-stroke"/><path stroke="#949ec8" d="M728.04 537.5l-56.33 56.42q-.34.34-.68 0l-69.83-69.87a.15.14 43.7 0 0-.21 0L453.71 671.5" vector-effect="non-scaling-stroke"/><path stroke="#2c3b7a" d="M327 544.79q35.68-34.83 70.56-70.58" vector-effect="non-scaling-stroke"/><path stroke="#989cb1" d="M741.83 523.45l-13.79 14.05" vector-effect="non-scaling-stroke"/><path stroke="#2c3b7a" d="M728.04 537.5c-1.05-.51-2.12-.96-2.97-1.81q-68.64-68.62-137.25-137.25-.58-.58-.82-1.73M167.57 526.64l-.57.24a2.28 2.09 9.3 0 0-.73.48l-13.02 12.96q-.33.32-.02.66 3.42 3.77 5.47 5.82 139.85 139.9 279.46 279.47a.87.86 44.5 0 0 1.22 0c3.64-3.7 11.35-9.85 13.46-14.32" vector-effect="non-scaling-stroke"/><path stroke="#2c74b9" d="M526.29 885.25q-.15.73-.48 1.06-34.49 34.5-69 69c-.32.32-.89.45-1.31.48" vector-effect="non-scaling-stroke"/><path stroke="#989cb1" d="M601.04 382.75L587 396.71" vector-effect="non-scaling-stroke"/><path stroke="#949ec8" d="M587 396.71L453.66 529.87a.31.3 44.3 0 1-.43 0l-55.67-55.66" vector-effect="non-scaling-stroke"/><path stroke="#989cb1" d="M397.56 474.21l-18.35-18.71" vector-effect="non-scaling-stroke"/></g><path fill="#fff" d="M0 0h1974v1061H0V0zm526.04 166.5l-.02.5a1.28 1.26 69 0 1-.37.85l-13.44 13.4-344.63 344.67q-.08.08-.21.1l-.12.02-70.68-70.62a.43.42 44.5 0 0-.61 0L26.2 525.17a.86.86 0 0 0 0 1.21l429.3 429.41q35.02 35.8 70.75 70.88.38.37.75 0l415.04-415.42 14.71-14.71 70.21-69.94a.35.35 0 0 0 0-.5L597.44 96.57l-71.2-71a.35.35 0 0 0-.49 0l-69.89 69.8q-.44.43 0 .86l70.18 70.27z"/><path fill="#30ace1" d="M597.44 96.57q-35.61 34.56-70.19 69.97l-1.21-.04-70.18-70.27q-.44-.43 0-.86l69.89-69.8a.35.35 0 0 1 .49 0l71.2 71z"/><path fill="#283c90" d="M597.44 96.57l429.52 429.53a.35.35 0 0 1 0 .5l-70.21 69.94c-.92-.07-.99-.62-1.46-1.09q-34.02-34.17-68.24-68.15c-.28-.28-1.13-.63-1.51-.8l-73.04-73.29q-.55-1.46-1.65-2.56-141.71-141.64-283.38-283.3c-.26-.26-.26-.47-.22-.81q34.58-35.41 70.19-69.97z"/><path fill="#277da3" d="M526.04 166.5l1.21.04c-.04.34-.04.55.22.81q141.67 141.66 283.38 283.3 1.1 1.1 1.65 2.56l-14.38 14.24-285.91-286.2 13.44-13.4a1.28 1.26 69 0 0 .37-.85l.02-.5z"/><path fill="#30ace1" d="M512.21 181.25l285.91 286.2-56.29 56-140.79-140.7-74.14-74.47a.49.49 0 0 0-.7 0L379.21 455.5l-70.39 70.37q-.38.38 0 .77L327 544.79 453.71 671.5l69.69 69.75a.52.52 0 0 1 0 .73l-69.94 70.27q-.42.05-.62-.3L167.57 526.64l-.32-.6.12-.02q.13-.02.21-.1l344.63-344.67z"/><path fill="#fff" d="M601.04 382.75L587 396.71 453.66 529.87a.31.3 44.3 0 1-.43 0l-55.67-55.66-18.35-18.71L526.2 308.28a.49.49 0 0 1 .7 0l74.14 74.47z"/><path fill="#303963" d="M601.04 382.75l140.79 140.7-13.79 14.05c-1.05-.51-2.12-.96-2.97-1.81q-68.64-68.62-137.25-137.25-.58-.58-.82-1.73l14.04-13.96z"/><path fill="#283c90" d="M587 396.71q.24 1.15.82 1.73 68.61 68.63 137.25 137.25c.85.85 1.92 1.3 2.97 1.81l-56.33 56.42q-.34.34-.68 0l-69.83-69.87a.15.14 43.7 0 0-.21 0L453.71 671.5 327 544.79q35.68-34.83 70.56-70.58l55.67 55.66a.31.3 44.3 0 0 .43 0L587 396.71z"/><path fill="#fff" d="M812.5 453.21l73.04 73.29-13.82 13.9Q700.26 711.87 528.33 883.84q-.89.89-2.04 1.41l-72.83-73 69.94-70.27a.52.52 0 0 0 0-.73l-69.69-69.75 147.28-147.45a.15.14 43.7 0 1 .21 0l69.83 69.87q.34.34.68 0l56.33-56.42 13.79-14.05 56.29-56 14.38-14.24z"/><path fill="#283c90" d="M167.25 526.04l.32.6-.57.24a2.28 2.09 9.3 0 0-.73.48l-13.02 12.96q-.33.32-.02.66 3.42 3.77 5.47 5.82 139.85 139.9 279.46 279.47a.87.86 44.5 0 0 1.22 0c3.64-3.7 11.35-9.85 13.46-14.32q.2.35.62.3l72.83 73q-.15.73-.48 1.06-34.49 34.5-69 69c-.32.32-.89.45-1.31.48L26.2 526.38a.86.86 0 0 1 0-1.21l69.76-69.75a.43.42 44.5 0 1 .61 0l70.68 70.62z"/><path fill="#303963" d="M379.21 455.5l18.35 18.71q-34.88 35.75-70.56 70.58l-18.18-18.15q-.38-.39 0-.77l70.39-70.37z"/><path fill="#277da3" d="M885.54 526.5c.38.17 1.23.52 1.51.8q34.22 33.98 68.24 68.15c.47.47.54 1.02 1.46 1.09l-14.71 14.71q-35.65-34.84-70.32-70.85l13.82-13.9z"/><path fill="#303963" d="M167.57 526.64l285.27 285.31c-2.11 4.47-9.82 10.62-13.46 14.32a.87.86 44.5 0 1-1.22 0Q298.55 686.7 158.7 546.8q-2.05-2.05-5.47-5.82-.31-.34.02-.66l13.02-12.96a2.28 2.09 9.3 0 1 .73-.48l.57-.24z"/><path fill="#30ace1" d="M871.72 540.4q34.67 36.01 70.32 70.85L527 1026.67q-.37.37-.75 0-35.73-35.08-70.75-70.88c.42-.03.99-.16 1.31-.48q34.51-34.5 69-69 .33-.33.48-1.06 1.15-.52 2.04-1.41Q700.26 711.87 871.72 540.4z"/></svg>

<?xml version="1.0" encoding="UTF-8" standalone="no"?>
<!DOCTYPE svg PUBLIC "-//W3C//DTD SVG 1.1//EN" "http://www.w3.org/Graphics/SVG/1.1/DTD/svg11.dtd">
<svg xmlns="http://www.w3.org/2000/svg" version="1.1" viewBox="0.00 0.00 1974.00 1061.00">
<g stroke-width="2.00" fill="none" stroke-linecap="butt">
<path stroke="#93bed1" vector-effect="non-scaling-stroke" d="
  M 526.04 166.50
  L 526.02 167.00
  A 1.28 1.26 69.0 0 1 525.65 167.85
  L 512.21 181.25"
/>
<path stroke="#98d6f0" vector-effect="non-scaling-stroke" d="
  M 512.21 181.25
  L 167.58 525.92
  Q 167.50 526.00 167.37 526.02
  Q 167.31 526.03 167.25 526.04"
/>
<path stroke="#949ec8" vector-effect="non-scaling-stroke" d="
  M 167.25 526.04
  L 96.57 455.42
  A 0.43 0.42 44.5 0 0 95.96 455.42
  L 26.20 525.17
  A 0.86 0.86 0.0 0 0 26.20 526.38
  L 455.50 955.79"
/>
<path stroke="#98d6f0" vector-effect="non-scaling-stroke" d="
  M 455.50 955.79
  Q 490.52 991.59 526.25 1026.67
  Q 526.63 1027.04 527.00 1026.67
  L 942.04 611.25"
/>
<path stroke="#93bed1" vector-effect="non-scaling-stroke" d="
  M 942.04 611.25
  L 956.75 596.54"
/>
<path stroke="#949ec8" vector-effect="non-scaling-stroke" d="
  M 956.75 596.54
  L 1026.96 526.60
  A 0.35 0.35 0.0 0 0 1026.96 526.10
  L 597.44 96.57"
/>
<path stroke="#98d6f0" vector-effect="non-scaling-stroke" d="
  M 597.44 96.57
  L 526.24 25.57
  A 0.35 0.35 0.0 0 0 525.75 25.57
  L 455.86 95.37
  Q 455.42 95.80 455.86 96.23
  L 526.04 166.50"
/>
<path stroke="#2c74b9" vector-effect="non-scaling-stroke" d="
  M 597.44 96.57
  Q 561.83 131.13 527.25 166.54"
/>
<path stroke="#2c95c2" vector-effect="non-scaling-stroke" d="
  M 527.25 166.54
  L 526.04 166.50"
/>
<path stroke="#285d9a" vector-effect="non-scaling-stroke" d="
  M 956.75 596.54
  C 955.83 596.47 955.76 595.92 955.29 595.45
  Q 921.27 561.28 887.05 527.30
  C 886.77 527.02 885.92 526.67 885.54 526.50"
/>
<path stroke="#949ec8" vector-effect="non-scaling-stroke" d="
  M 885.54 526.50
  L 812.50 453.21"
/>
<path stroke="#285d9a" vector-effect="non-scaling-stroke" d="
  M 812.50 453.21
  Q 811.95 451.75 810.85 450.65
  Q 669.14 309.01 527.47 167.35
  C 527.21 167.09 527.21 166.88 527.25 166.54"
/>
<path stroke="#93bed1" vector-effect="non-scaling-stroke" d="
  M 812.50 453.21
  L 798.12 467.45"
/>
<path stroke="#2c95c2" vector-effect="non-scaling-stroke" d="
  M 798.12 467.45
  L 512.21 181.25"
/>
<path stroke="#2c95c2" vector-effect="non-scaling-stroke" d="
  M 942.04 611.25
  Q 906.39 576.41 871.72 540.40"
/>
<path stroke="#93bed1" vector-effect="non-scaling-stroke" d="
  M 885.54 526.50
  L 871.72 540.40"
/>
<path stroke="#98d6f0" vector-effect="non-scaling-stroke" d="
  M 871.72 540.40
  Q 700.26 711.87 528.33 883.84
  Q 527.44 884.73 526.29 885.25"
/>
<path stroke="#949ec8" vector-effect="non-scaling-stroke" d="
  M 526.29 885.25
  L 453.46 812.25"
/>
<path stroke="#98d6f0" vector-effect="non-scaling-stroke" d="
  M 798.12 467.45
  L 741.83 523.45"
/>
<path stroke="#3073a2" vector-effect="non-scaling-stroke" d="
  M 741.83 523.45
  L 601.04 382.75"
/>
<path stroke="#98d6f0" vector-effect="non-scaling-stroke" d="
  M 601.04 382.75
  L 526.90 308.28
  A 0.49 0.49 0.0 0 0 526.20 308.28
  L 379.21 455.50"
/>
<path stroke="#3073a2" vector-effect="non-scaling-stroke" d="
  M 379.21 455.50
  L 308.82 525.87
  Q 308.44 526.25 308.82 526.64
  L 327.00 544.79"
/>
<path stroke="#2c74b9" vector-effect="non-scaling-stroke" d="
  M 327.00 544.79
  L 453.71 671.50"
/>
<path stroke="#98d6f0" vector-effect="non-scaling-stroke" d="
  M 453.71 671.50
  L 523.40 741.25
  A 0.52 0.52 0.0 0 1 523.40 741.98
  L 453.46 812.25"
/>
<path stroke="#2c74b9" vector-effect="non-scaling-stroke" d="
  M 453.46 812.25
  Q 453.04 812.30 452.84 811.95"
/>
<path stroke="#3073a2" vector-effect="non-scaling-stroke" d="
  M 452.84 811.95
  L 167.57 526.64"
/>
<path stroke="#2c74b9" vector-effect="non-scaling-stroke" d="
  M 167.57 526.64
  L 167.25 526.04"
/>
<path stroke="#949ec8" vector-effect="non-scaling-stroke" d="
  M 728.04 537.50
  L 671.71 593.92
  Q 671.37 594.26 671.03 593.92
  L 601.20 524.05
  A 0.15 0.14 43.7 0 0 600.99 524.05
  L 453.71 671.50"
/>
<path stroke="#2c3b7a" vector-effect="non-scaling-stroke" d="
  M 327.00 544.79
  Q 362.68 509.96 397.56 474.21"
/>
<path stroke="#989cb1" vector-effect="non-scaling-stroke" d="
  M 741.83 523.45
  L 728.04 537.50"
/>
<path stroke="#2c3b7a" vector-effect="non-scaling-stroke" d="
  M 728.04 537.50
  C 726.99 536.99 725.92 536.54 725.07 535.69
  Q 656.43 467.07 587.82 398.44
  Q 587.24 397.86 587.00 396.71"
/>
<path stroke="#2c3b7a" vector-effect="non-scaling-stroke" d="
  M 167.57 526.64
  L 167.00 526.88
  A 2.28 2.09 9.3 0 0 166.27 527.36
  L 153.25 540.32
  Q 152.92 540.64 153.23 540.98
  Q 156.65 544.75 158.70 546.80
  Q 298.55 686.70 438.16 826.27
  A 0.87 0.86 44.5 0 0 439.38 826.27
  C 443.02 822.57 450.73 816.42 452.84 811.95"
/>
<path stroke="#2c74b9" vector-effect="non-scaling-stroke" d="
  M 526.29 885.25
  Q 526.14 885.98 525.81 886.31
  Q 491.32 920.81 456.81 955.31
  C 456.49 955.63 455.92 955.76 455.50 955.79"
/>
<path stroke="#989cb1" vector-effect="non-scaling-stroke" d="
  M 601.04 382.75
  L 587.00 396.71"
/>
<path stroke="#949ec8" vector-effect="non-scaling-stroke" d="
  M 587.00 396.71
  L 453.66 529.87
  A 0.31 0.30 44.3 0 1 453.23 529.87
  L 397.56 474.21"
/>
<path stroke="#989cb1" vector-effect="non-scaling-stroke" d="
  M 397.56 474.21
  L 379.21 455.50"
/>
</g>
<path fill="#ffffff" d="
  M 0.00 0.00
  L 1974.00 0.00
  L 1974.00 1061.00
  L 0.00 1061.00
  L 0.00 0.00
  Z
  M 526.04 166.50
  L 526.02 167.00
  A 1.28 1.26 69.0 0 1 525.65 167.85
  L 512.21 181.25
  L 167.58 525.92
  Q 167.50 526.00 167.37 526.02
  Q 167.31 526.03 167.25 526.04
  L 96.57 455.42
  A 0.43 0.42 44.5 0 0 95.96 455.42
  L 26.20 525.17
  A 0.86 0.86 0.0 0 0 26.20 526.38
  L 455.50 955.79
  Q 490.52 991.59 526.25 1026.67
  Q 526.63 1027.04 527.00 1026.67
  L 942.04 611.25
  L 956.75 596.54
  L 1026.96 526.60
  A 0.35 0.35 0.0 0 0 1026.96 526.10
  L 597.44 96.57
  L 526.24 25.57
  A 0.35 0.35 0.0 0 0 525.75 25.57
  L 455.86 95.37
  Q 455.42 95.80 455.86 96.23
  L 526.04 166.50
  Z"
/>
<path fill="#30ace1" d="
  M 597.44 96.57
  Q 561.83 131.13 527.25 166.54
  L 526.04 166.50
  L 455.86 96.23
  Q 455.42 95.80 455.86 95.37
  L 525.75 25.57
  A 0.35 0.35 0.0 0 1 526.24 25.57
  L 597.44 96.57
  Z"
/>
<path fill="#283c90" d="
  M 597.44 96.57
  L 1026.96 526.10
  A 0.35 0.35 0.0 0 1 1026.96 526.60
  L 956.75 596.54
  C 955.83 596.47 955.76 595.92 955.29 595.45
  Q 921.27 561.28 887.05 527.30
  C 886.77 527.02 885.92 526.67 885.54 526.50
  L 812.50 453.21
  Q 811.95 451.75 810.85 450.65
  Q 669.14 309.01 527.47 167.35
  C 527.21 167.09 527.21 166.88 527.25 166.54
  Q 561.83 131.13 597.44 96.57
  Z"
/>
<path fill="#277da3" d="
  M 526.04 166.50
  L 527.25 166.54
  C 527.21 166.88 527.21 167.09 527.47 167.35
  Q 669.14 309.01 810.85 450.65
  Q 811.95 451.75 812.50 453.21
  L 798.12 467.45
  L 512.21 181.25
  L 525.65 167.85
  A 1.28 1.26 69.0 0 0 526.02 167.00
  L 526.04 166.50
  Z"
/>
<path fill="#30ace1" d="
  M 512.21 181.25
  L 798.12 467.45
  L 741.83 523.45
  L 601.04 382.75
  L 526.90 308.28
  A 0.49 0.49 0.0 0 0 526.20 308.28
  L 379.21 455.50
  L 308.82 525.87
  Q 308.44 526.25 308.82 526.64
  L 327.00 544.79
  L 453.71 671.50
  L 523.40 741.25
  A 0.52 0.52 0.0 0 1 523.40 741.98
  L 453.46 812.25
  Q 453.04 812.30 452.84 811.95
  L 167.57 526.64
  L 167.25 526.04
  Q 167.31 526.03 167.37 526.02
  Q 167.50 526.00 167.58 525.92
  L 512.21 181.25
  Z"
/>
<path fill="#ffffff" d="
  M 601.04 382.75
  L 587.00 396.71
  L 453.66 529.87
  A 0.31 0.30 44.3 0 1 453.23 529.87
  L 397.56 474.21
  L 379.21 455.50
  L 526.20 308.28
  A 0.49 0.49 0.0 0 1 526.90 308.28
  L 601.04 382.75
  Z"
/>
<path fill="#303963" d="
  M 601.04 382.75
  L 741.83 523.45
  L 728.04 537.50
  C 726.99 536.99 725.92 536.54 725.07 535.69
  Q 656.43 467.07 587.82 398.44
  Q 587.24 397.86 587.00 396.71
  L 601.04 382.75
  Z"
/>
<path fill="#283c90" d="
  M 587.00 396.71
  Q 587.24 397.86 587.82 398.44
  Q 656.43 467.07 725.07 535.69
  C 725.92 536.54 726.99 536.99 728.04 537.50
  L 671.71 593.92
  Q 671.37 594.26 671.03 593.92
  L 601.20 524.05
  A 0.15 0.14 43.7 0 0 600.99 524.05
  L 453.71 671.50
  L 327.00 544.79
  Q 362.68 509.96 397.56 474.21
  L 453.23 529.87
  A 0.31 0.30 44.3 0 0 453.66 529.87
  L 587.00 396.71
  Z"
/>
<path fill="#ffffff" d="
  M 812.50 453.21
  L 885.54 526.50
  L 871.72 540.40
  Q 700.26 711.87 528.33 883.84
  Q 527.44 884.73 526.29 885.25
  L 453.46 812.25
  L 523.40 741.98
  A 0.52 0.52 0.0 0 0 523.40 741.25
  L 453.71 671.50
  L 600.99 524.05
  A 0.15 0.14 43.7 0 1 601.20 524.05
  L 671.03 593.92
  Q 671.37 594.26 671.71 593.92
  L 728.04 537.50
  L 741.83 523.45
  L 798.12 467.45
  L 812.50 453.21
  Z"
/>
<path fill="#283c90" d="
  M 167.25 526.04
  L 167.57 526.64
  L 167.00 526.88
  A 2.28 2.09 9.3 0 0 166.27 527.36
  L 153.25 540.32
  Q 152.92 540.64 153.23 540.98
  Q 156.65 544.75 158.70 546.80
  Q 298.55 686.70 438.16 826.27
  A 0.87 0.86 44.5 0 0 439.38 826.27
  C 443.02 822.57 450.73 816.42 452.84 811.95
  Q 453.04 812.30 453.46 812.25
  L 526.29 885.25
  Q 526.14 885.98 525.81 886.31
  Q 491.32 920.81 456.81 955.31
  C 456.49 955.63 455.92 955.76 455.50 955.79
  L 26.20 526.38
  A 0.86 0.86 0.0 0 1 26.20 525.17
  L 95.96 455.42
  A 0.43 0.42 44.5 0 1 96.57 455.42
  L 167.25 526.04
  Z"
/>
<path fill="#303963" d="
  M 379.21 455.50
  L 397.56 474.21
  Q 362.68 509.96 327.00 544.79
  L 308.82 526.64
  Q 308.44 526.25 308.82 525.87
  L 379.21 455.50
  Z"
/>
<path fill="#277da3" d="
  M 885.54 526.50
  C 885.92 526.67 886.77 527.02 887.05 527.30
  Q 921.27 561.28 955.29 595.45
  C 955.76 595.92 955.83 596.47 956.75 596.54
  L 942.04 611.25
  Q 906.39 576.41 871.72 540.40
  L 885.54 526.50
  Z"
/>
<path fill="#303963" d="
  M 167.57 526.64
  L 452.84 811.95
  C 450.73 816.42 443.02 822.57 439.38 826.27
  A 0.87 0.86 44.5 0 1 438.16 826.27
  Q 298.55 686.70 158.70 546.80
  Q 156.65 544.75 153.23 540.98
  Q 152.92 540.64 153.25 540.32
  L 166.27 527.36
  A 2.28 2.09 9.3 0 1 167.00 526.88
  L 167.57 526.64
  Z"
/>
<path fill="#30ace1" d="
  M 871.72 540.40
  Q 906.39 576.41 942.04 611.25
  L 527.00 1026.67
  Q 526.63 1027.04 526.25 1026.67
  Q 490.52 991.59 455.50 955.79
  C 455.92 955.76 456.49 955.63 456.81 955.31
  Q 491.32 920.81 525.81 886.31
  Q 526.14 885.98 526.29 885.25
  Q 527.44 884.73 528.33 883.84
  Q 700.26 711.87 871.72 540.40
  Z"
/>
</svg>
